X:14
T:'Joy'
T:circa 1916
C:Arthur Mabey Chanter (1866-1950)
O:Australia
S:https://nla.gov.au:443/tarkine/nla.obj-168741823
S:J.W.Fletcher & Co. Publisher, London.
L:1/8
Q:1/4=70
M:4/4
K:Gmaj
V:1
[I:MIDI=program 58] GDDB, CDEF | GDDB, CDEF |$ B,^DFB AFAG | FA,B,D FGAB | E4 D2 z2 |$ CEGE CB,A,D | 
w:Joy the heart sings in the spring time.|Joy of happy * summers * coming. *|Breath and bloom gay gardens * fragrance, *|all is still save bees * low *|humm- ing.|Joy heart sings at suns up ris- ing.|
CEGE CB,A,D |$ FFGG ^DDEE | B,DEF GABc |$ A4 G2 |$ GFFB, CDEF |$ 
w:Joy in sha- dy tea tree arch es.|Splash of wavelets * on the beach- es.|on- ward joy- ful summ- * er *|mar- ches.|Joy when summ- ers day is clo- sing.|
GDDB, CDEF | B,^DFB AFAG |$ FA,B,D FGAB | E4 D2 z2 | CEGE CB,A,D |$ CEGE CB,A,D | FFGG ^DDEE |$ 
w:Gent- lest breeze from south all cool- ing.|All the land a- glow with sun- light.|Then clear moon- light dark * o'er *|rul- ing.|Joy in sun- light, Joy in shad- ow.|Fill the heart with rar- est pleas- ure.|Hymns the ev- er glad- 'ning an- them.|
B,DEF GABc | A4 G2 z2|] 
w:Joy of earth in full * est *|Meas- ure.|

